<?xml version="1.0" encoding="UTF-8"?>
<map version="1.10" tiledversion="1.12.2" orientation="orthogonal" renderorder="right-down" width="20" height="30" tilewidth="16" tileheight="16" infinite="0" nextlayerid="14" nextobjectid="1">
 <tileset firstgid="1" source="Template_House#1_Tilemap_01.tsx"/>
 <layer id="1" name="Base#House" width="20" height="30">
  <data encoding="csv">
0,0,0,0,0,0,0,0,0,0,0,0,0,0,0,0,0,0,0,0,
0,0,0,0,0,0,0,0,0,0,0,0,0,0,0,0,0,0,0,0,
0,0,0,0,521,522,523,524,525,526,527,528,529,530,531,532,0,0,0,0,
0,0,0,0,561,562,563,564,565,566,567,568,569,570,571,572,0,0,0,0,
0,0,0,0,601,602,603,604,605,606,607,608,609,610,611,612,0,0,0,0,
0,0,0,0,641,642,643,644,645,646,647,648,649,650,651,652,0,0,0,0,
0,0,0,0,681,682,683,684,685,686,687,688,689,690,691,692,0,0,0,0,
0,0,0,0,721,722,723,724,725,726,727,728,729,730,731,732,0,0,0,0,
0,0,0,0,761,762,763,764,765,766,767,768,769,770,771,772,0,0,0,0,
0,0,0,0,801,802,803,804,805,806,807,808,809,810,811,812,0,0,0,0,
0,0,0,0,841,842,843,844,845,846,847,848,849,850,851,852,0,0,0,0,
0,0,0,0,881,882,883,884,885,886,887,888,889,890,891,892,0,0,0,0,
0,0,0,0,921,922,923,924,925,926,927,928,929,930,931,932,0,0,0,0,
0,0,0,0,961,962,963,964,965,966,967,968,969,970,971,972,0,0,0,0,
0,0,0,0,1001,1002,1003,1004,1005,1006,1007,1008,1009,1010,1011,1012,0,0,0,0,
0,0,0,0,1041,1042,1043,1044,1045,1046,1047,1048,1049,1050,1051,1052,0,0,0,0,
0,0,0,0,1081,1082,1083,1084,1085,1086,1087,1088,1089,1090,1091,1092,0,0,0,0,
0,0,0,0,1121,1122,1123,1124,1125,1126,1127,1128,1129,1130,1131,1132,0,0,0,0,
0,0,0,0,1161,1162,1163,1164,1165,1166,1167,1168,1169,1170,1171,1172,0,0,0,0,
0,0,0,0,1201,1202,1203,1204,1205,1206,1207,1208,1209,1210,1211,1212,0,0,0,0,
0,0,0,0,1241,1242,1243,1244,1245,1246,1247,1248,1249,1250,1251,1252,0,0,0,0,
0,0,0,0,1281,1282,1283,1284,1285,1286,1287,1288,1289,1290,1291,1292,0,0,0,0,
0,0,0,0,1321,1322,1323,1324,1325,1326,1327,1328,1329,1330,1331,1332,0,0,0,0,
0,0,0,0,1361,1362,1363,1364,1365,1366,1367,1368,1369,1370,1371,1372,0,0,0,0,
0,0,0,0,1401,1402,1403,1404,1405,1406,1407,1408,1409,1410,1411,1412,0,0,0,0,
0,0,0,0,1441,1442,1443,1444,1445,1446,1447,1448,1449,1450,1451,0,0,0,0,0,
0,0,0,0,1481,1482,1483,1484,1485,1486,1487,1488,1489,1490,1491,0,0,0,0,0,
0,0,0,0,1521,1522,1523,1524,1525,1526,1527,1528,1529,1530,1531,0,0,0,0,0,
0,0,0,0,1561,1562,1563,1564,1565,1566,1567,1568,1569,1570,1571,1572,0,0,0,0,
0,0,0,0,0,0,0,0,0,0,0,0,0,0,0,0,0,0,0,0
</data>
 </layer>
 <layer id="5" name="Ads Banner 1" width="20" height="30">
  <data encoding="csv">
0,0,0,0,0,0,0,0,0,0,0,0,0,0,0,0,0,0,0,0,
0,0,0,0,0,0,0,0,0,0,0,0,0,0,0,0,0,0,0,0,
0,0,0,0,0,0,0,0,0,0,0,0,0,0,0,0,0,0,0,0,
0,0,0,0,0,0,0,0,0,0,0,0,0,0,0,0,0,0,0,0,
0,0,0,0,0,0,0,0,0,0,0,0,0,0,0,0,0,0,0,0,
0,0,0,935,936,937,938,939,940,941,942,943,944,945,946,947,948,0,0,0,
0,0,0,975,0,0,0,0,0,0,0,0,0,0,0,0,988,0,0,0,
0,0,0,1015,0,0,0,0,0,1021,0,0,0,0,0,0,1028,0,0,0,
0,0,0,1055,0,0,0,0,0,0,0,0,0,0,0,0,1068,0,0,0,
0,0,0,1095,1096,1097,1098,1099,1100,1101,1102,1103,1104,1105,1106,1107,0,0,0,0,
0,0,0,0,0,0,0,0,0,0,0,0,0,0,0,0,0,0,0,0,
0,0,0,0,0,0,0,0,0,0,0,0,0,0,0,0,0,0,0,0,
0,0,0,0,0,0,0,0,0,0,0,0,0,0,0,0,0,0,0,0,
0,0,0,0,0,0,0,0,0,0,0,0,0,0,0,0,0,0,0,0,
0,0,0,0,0,0,0,0,0,0,0,0,0,0,0,0,0,0,0,0,
0,0,0,0,0,0,0,0,0,0,0,0,0,0,0,0,0,0,0,0,
0,0,0,0,0,0,0,0,0,0,0,0,0,0,0,0,0,0,0,0,
0,0,0,0,0,0,0,0,0,0,0,0,0,0,0,0,0,0,0,0,
0,0,0,0,1173,1174,1175,1176,1177,1178,1179,1180,1181,1182,1183,1184,0,0,0,0,
0,0,0,0,1213,1214,1215,1216,1217,1218,1219,1220,1221,1222,1223,1224,0,0,0,0,
0,0,0,0,1253,1254,1255,1256,1257,1258,1259,1260,1261,1262,1263,1264,0,0,0,0,
0,0,0,0,0,0,0,0,0,0,0,0,0,0,0,0,0,0,0,0,
0,0,0,0,0,0,0,0,0,0,0,0,0,0,0,0,0,0,0,0,
0,0,0,0,0,0,0,0,0,0,0,0,0,0,0,0,0,0,0,0,
0,0,0,0,0,0,0,0,0,0,0,0,0,0,0,0,0,0,0,0,
0,0,0,0,0,0,0,0,0,0,0,0,0,0,0,0,0,0,0,0,
0,0,0,0,0,0,0,0,0,0,0,0,0,0,0,0,0,0,0,0,
0,0,0,0,0,0,0,0,0,0,0,0,0,0,0,0,0,0,0,0,
0,0,0,0,0,0,0,0,0,0,0,0,0,0,0,0,0,0,0,0,
0,0,0,0,0,0,0,0,0,0,0,0,0,0,0,0,0,0,0,0
</data>
 </layer>
 <layer id="12" name="Fridge#Top" width="20" height="30">
  <data encoding="csv">
0,0,0,0,0,0,0,0,0,0,0,0,0,0,0,0,0,0,0,0,
0,0,0,0,0,0,0,0,0,0,0,0,0,0,0,0,0,0,0,0,
0,0,0,0,0,0,0,0,0,0,0,0,0,0,0,0,0,0,0,0,
0,0,0,0,0,0,0,0,0,0,0,0,0,0,0,0,0,0,0,0,
0,0,0,0,0,0,0,0,0,0,0,0,0,0,0,0,0,0,0,0,
0,0,0,0,0,0,0,0,0,0,0,0,0,0,0,0,0,0,0,0,
0,0,0,0,0,0,0,0,0,0,0,0,0,0,0,0,0,0,0,0,
0,0,0,0,0,0,1333,1334,1335,0,1333,1334,1335,0,0,0,0,0,0,0,
0,0,0,0,0,0,1373,1374,1375,0,1373,1374,1375,0,0,0,0,0,0,0,
0,0,0,0,0,0,0,0,0,0,0,0,0,0,0,0,0,0,0,0,
0,0,0,0,0,0,0,0,0,0,0,0,0,0,0,0,0,0,0,0,
0,0,0,0,0,0,0,0,0,0,0,0,0,0,0,0,0,0,0,0,
0,0,0,0,0,0,0,0,0,0,0,0,0,0,0,0,0,0,0,0,
0,0,0,0,0,0,0,0,0,0,0,0,0,0,0,0,0,0,0,0,
0,0,0,0,0,0,0,0,0,0,0,0,0,0,0,0,0,0,0,0,
0,0,0,0,0,0,0,0,0,0,0,0,0,0,0,0,0,0,0,0,
0,0,0,0,0,0,0,0,0,0,0,0,0,0,0,0,0,0,0,0,
0,0,0,0,0,0,0,0,0,0,0,0,0,0,0,0,0,0,0,0,
0,0,0,0,0,0,0,0,0,0,0,0,0,0,0,0,0,0,0,0,
0,0,0,0,0,0,0,0,0,0,0,0,0,0,0,0,0,0,0,0,
0,0,0,0,0,0,0,0,0,0,0,0,0,0,0,0,0,0,0,0,
0,0,0,0,0,0,0,0,0,0,0,0,0,0,0,0,0,0,0,0,
0,0,0,0,0,0,0,0,0,0,0,0,0,0,0,0,0,0,0,0,
0,0,0,0,0,0,0,0,0,0,0,0,0,0,0,0,0,0,0,0,
0,0,0,0,0,0,0,0,0,0,0,0,0,0,0,0,0,0,0,0,
0,0,0,0,0,0,0,0,0,0,0,0,0,0,0,0,0,0,0,0,
0,0,0,0,0,0,0,0,0,0,0,0,0,0,0,0,0,0,0,0,
0,0,0,0,0,0,0,0,0,0,0,0,0,0,0,0,0,0,0,0,
0,0,0,0,0,0,0,0,0,0,0,0,0,0,0,0,0,0,0,0,
0,0,0,0,0,0,0,0,0,0,0,0,0,0,0,0,0,0,0,0
</data>
 </layer>
 <layer id="4" name="Railing#Top" width="20" height="30">
  <data encoding="csv">
0,0,0,0,0,0,0,0,0,0,0,0,0,0,0,0,0,0,0,0,
0,0,0,0,0,0,0,0,0,0,0,0,0,0,0,0,0,0,0,0,
0,0,0,0,0,0,0,0,0,0,0,0,0,0,0,0,0,0,0,0,
0,0,0,0,0,0,0,0,0,0,0,0,0,0,0,0,0,0,0,0,
0,0,0,0,0,0,0,0,0,0,0,0,0,0,0,0,0,0,0,0,
0,0,0,935,936,937,938,939,940,941,942,943,944,945,946,947,948,0,0,0,
0,0,0,975,976,977,978,979,980,981,982,983,984,985,986,987,988,0,0,0,
0,0,0,1015,1016,1017,1018,1019,1020,1021,1022,1023,1024,1025,1026,1027,1028,0,0,0,
0,0,0,1055,1056,1057,1058,1059,1060,1061,1062,1063,1064,1065,1066,1067,1068,0,0,0,
0,0,0,0,0,0,0,0,0,0,0,0,0,0,0,0,0,0,0,0,
0,0,0,0,0,0,0,0,0,0,0,0,0,0,0,0,0,0,0,0,
0,0,0,0,0,0,0,0,0,0,0,0,0,0,0,0,0,0,0,0,
0,0,0,0,0,0,0,0,0,0,0,0,0,0,0,0,0,0,0,0,
0,0,0,0,0,0,0,0,0,0,0,0,0,0,0,0,0,0,0,0,
0,0,0,0,0,0,0,0,0,0,0,0,0,0,0,0,0,0,0,0,
0,0,0,0,0,0,0,0,0,0,0,0,0,0,0,0,0,0,0,0,
0,0,0,0,0,0,0,0,0,0,0,0,0,0,0,0,0,0,0,0,
0,0,0,0,0,0,0,0,0,0,0,0,0,0,0,0,0,0,0,0,
0,0,0,0,0,0,0,0,0,0,0,0,0,0,0,0,0,0,0,0,
0,0,0,0,0,0,0,0,0,0,0,0,0,0,0,0,0,0,0,0,
0,0,0,0,0,0,0,0,0,0,0,0,0,0,0,0,0,0,0,0,
0,0,0,0,0,0,0,0,0,0,0,0,0,0,0,0,0,0,0,0,
0,0,0,0,0,0,0,0,0,0,0,0,0,0,0,0,0,0,0,0,
0,0,0,0,0,0,0,0,0,0,0,0,0,0,0,0,0,0,0,0,
0,0,0,0,0,0,0,0,0,0,0,0,0,0,0,0,0,0,0,0,
0,0,0,0,0,0,0,0,0,0,0,0,0,0,0,0,0,0,0,0,
0,0,0,0,0,0,0,0,0,0,0,0,0,0,0,0,0,0,0,0,
0,0,0,0,0,0,0,0,0,0,0,0,0,0,0,0,0,0,0,0,
0,0,0,0,0,0,0,0,0,0,0,0,0,0,0,0,0,0,0,0,
0,0,0,0,0,0,0,0,0,0,0,0,0,0,0,0,0,0,0,0
</data>
 </layer>
 <layer id="13" name="Railing#Bottom" width="20" height="30">
  <data encoding="csv">
0,0,0,0,0,0,0,0,0,0,0,0,0,0,0,0,0,0,0,0,
0,0,0,0,0,0,0,0,0,0,0,0,0,0,0,0,0,0,0,0,
0,0,0,0,0,0,0,0,0,0,0,0,0,0,0,0,0,0,0,0,
0,0,0,0,0,0,0,0,0,0,0,0,0,0,0,0,0,0,0,0,
0,0,0,0,0,0,0,0,0,0,0,0,0,0,0,0,0,0,0,0,
0,0,0,935,936,937,938,939,940,941,942,943,944,945,946,947,948,0,0,0,
0,0,0,0,0,0,0,0,0,0,0,0,0,0,0,0,0,0,0,0,
0,0,0,0,0,0,0,0,0,0,0,0,0,0,0,0,1028,0,0,0,
0,0,0,0,0,0,0,0,0,0,0,0,0,0,0,0,0,0,0,0,
0,0,0,0,0,0,0,0,0,0,0,0,0,0,0,0,0,0,0,0,
0,0,0,0,0,0,0,0,0,0,0,0,0,0,0,0,0,0,0,0,
0,0,0,0,0,0,0,0,0,0,0,0,0,0,0,0,0,0,0,0,
0,0,0,0,0,0,0,0,0,0,0,0,0,0,0,0,0,0,0,0,
0,0,0,0,0,0,0,0,0,0,0,0,0,0,0,0,0,0,0,0,
0,0,0,0,0,0,0,0,0,0,0,0,0,0,0,0,0,0,0,0,
0,0,0,0,976,977,978,979,980,981,982,983,984,985,986,987,0,0,0,0,
0,0,0,0,1016,1017,1018,1019,1020,1021,1022,1023,1024,1025,1026,1027,0,0,0,0,
0,0,0,0,1056,1057,1058,1059,1060,1061,1062,1063,1064,1065,1066,1067,0,0,0,0,
0,0,0,0,0,0,0,0,0,0,0,0,0,0,0,0,0,0,0,0,
0,0,0,0,0,0,0,0,0,0,0,0,0,0,0,0,0,0,0,0,
0,0,0,0,0,0,0,0,0,0,0,0,0,0,0,0,0,0,0,0,
0,0,0,0,0,0,0,0,0,0,0,0,0,0,0,0,0,0,0,0,
0,0,0,0,0,0,0,0,0,0,0,0,0,0,0,0,0,0,0,0,
0,0,0,0,0,0,0,0,0,0,0,0,0,0,0,0,0,0,0,0,
0,0,0,0,0,0,0,0,0,0,0,0,0,0,0,0,0,0,0,0,
0,0,0,0,0,0,0,0,0,0,0,0,0,0,0,0,0,0,0,0,
0,0,0,0,0,0,0,0,0,0,0,0,0,0,0,0,0,0,0,0,
0,0,0,0,0,0,0,0,0,0,0,0,0,0,0,0,0,0,0,0,
0,0,0,0,0,0,0,0,0,0,0,0,0,0,0,0,0,0,0,0,
0,0,0,0,0,0,0,0,0,0,0,0,0,0,0,0,0,0,0,0
</data>
 </layer>
</map>
